X: 8548
T: Cribbies, The
R: reel
M: 4/4
K: Bminor
|:dBBA ~B3A|FAAF E{F}EDA|dBBA FAEA|FEFA B3c|
dBBA dBBA|FAAF E{F}EDA|defg fede|~f3e dcBA:|
|:dfed cedc|BAFA BcdA|dfaf a2fe|dcBA FBBc|
d2B/c/d cdec|BAFA BcdA|defg fede|~f3e dcBA:|

